round/svg/palette.svg

<svg xmlns="http://www.w3.org/2000/svg" width="24" height="24"><path fill="none" d="M0 0h24v24H0V0z"/><g fill="currentColor"><path d="M12 3a9 9 0 0 0 0 18c.83 0 1.5-.67 1.5-1.5 0-.39-.15-.74-.39-1.01-.23-.26-.38-.61-.38-.99 0-.83.67-1.5 1.5-1.5H16c2.76 0 5-2.24 5-5 0-4.42-4.03-8-9-8zm-5.5 9c-.83 0-1.5-.67-1.5-1.5S5.67 9 6.5 9 8 9.67 8 10.5 7.33 12 6.5 12zm3-4C8.67 8 8 7.33 8 6.5S8.67 5 9.5 5s1.5.67 1.5 1.5S10.33 8 9.5 8zm5 0c-.83 0-1.5-.67-1.5-1.5S13.67 5 14.5 5s1.5.67 1.5 1.5S15.33 8 14.5 8zm3 4c-.83 0-1.5-.67-1.5-1.5S16.67 9 17.5 9s1.5.67 1.5 1.5-.67 1.5-1.5 1.5z"/></g></svg>

<?xml version="1.0" encoding="utf-8"?>
<!-- Generator: Adobe Illustrator 19.1.0, SVG Export Plug-In . SVG Version: 6.00 Build 0)  -->
<svg version="1.1" xmlns="http://www.w3.org/2000/svg" xmlns:xlink="http://www.w3.org/1999/xlink" x="0px" y="0px" width="24px"
	 height="24px" viewBox="0 0 24 24" enable-background="new 0 0 24 24" xml:space="preserve">
<g id="Bounding_Boxes">
	<g id="ui_x5F_spec_x5F_header_copy_2">
	</g>
	<path fill="none" d="M0,0h24v24H0V0z"/>
</g>
<g id="Rounded" fill="currentColor">
	<g id="ui_x5F_spec_x5F_header_copy_6">
	</g>
	<path d="M12,3c-4.97,0-9,4.03-9,9s4.03,9,9,9c0.83,0,1.5-0.67,1.5-1.5c0-0.39-0.15-0.74-0.39-1.01c-0.23-0.26-0.38-0.61-0.38-0.99
		c0-0.83,0.67-1.5,1.5-1.5H16c2.76,0,5-2.24,5-5C21,6.58,16.97,3,12,3z M6.5,12C5.67,12,5,11.33,5,10.5S5.67,9,6.5,9S8,9.67,8,10.5
		S7.33,12,6.5,12z M9.5,8C8.67,8,8,7.33,8,6.5S8.67,5,9.5,5S11,5.67,11,6.5S10.33,8,9.5,8z M14.5,8C13.67,8,13,7.33,13,6.5
		S13.67,5,14.5,5S16,5.67,16,6.5S15.33,8,14.5,8z M17.5,12c-0.83,0-1.5-0.67-1.5-1.5S16.67,9,17.5,9S19,9.67,19,10.5
		S18.33,12,17.5,12z"/>
</g>
</svg>
